T: Constitution Breakdown
M: 4/4
L: 1/8
K: Gmaj
|: Bc |
db b/b/b b2 fg | ag a/g/f g2 dc | Bdgd Bdgd | ec c/c/c cBAB |
ca a/a/a agga | gf-ff f3 f | efdf efdf | edBA G2 Bc |
d/d/b b/b/b b2 fg | ag a/g/f g2 dc | Bdgd Bdgd | ec-c2 c3 F |
E2 cE dEcE | D2 BD cDBD | DFAB cAFG | AG-GG G3 F |
Ec-cE dEcE | DB-BD cDBD | DFAB c/B/A FG | AG-GG G2 :|
